X: 42793
T: Whitefriars
R: hornpipe
M: 4/4
K: Gmajor
AB|:cBAG FGAF|GABG A2 DD|F2D2 FGAB|
A3 B cBAG FGAF|GABG ABcd|B2 GF G2 AB:|
|:cBcd e4|g4 agfe|defd ef ge|a2 A2 A2 AB|
cBcd e4|g4 agfe|defd AB cd|B2 G2 G2 AB:|

